dist/svg/static/anti-theft-alarm-system-alert-small.svg

<svg xmlns="http://www.w3.org/2000/svg" width="24" height="24" viewBox="0 0 24 24"><g fill="none" stroke="currentColor"><g stroke-miterlimit="10"><path d="M5.07 20.5h13.86a.57.57 0 0 1 .57.57v1.86a.57.57 0 0 1-.57.57H5.07a.57.57 0 0 1-.57-.57v-1.86a.57.57 0 0 1 .57-.57zM16.5 14.5l1 6M6 20.5L8.24 8.82c0-.32.33-.32.64-.32H11"/></g><g stroke-miterlimit="10"><path d="M11.5 0v6M6.9 7.16L2.88 3.13M0 12.5h5"/></g><path stroke-linejoin="round" d="M17.5 5v3M17.5 9v2"/><path stroke-miterlimit="10" d="M23.2 12.5H11.8L17.46 1z"/></g></svg>

<?xml version="1.0" encoding="UTF-8" standalone="no"?>
<svg width="24px" height="24px" viewBox="0 0 24 24" version="1.1" xmlns="http://www.w3.org/2000/svg" xmlns:xlink="http://www.w3.org/1999/xlink">
    <!-- Generator: sketchtool 46.2 (44496) - http://www.bohemiancoding.com/sketch -->
    <title>anti-theft-alarm-system-alert-small</title>
    <desc>Created with sketchtool.</desc>
    <defs></defs>
    <g id="icons-published" stroke="none" stroke-width="1" fill="none" fill-rule="evenodd">
        <g id="briefing" transform="translate(-1508.000000, -26.000000)"></g>
        <g id="anti-theft-alarm-system-alert-small" stroke="#000000">
            <path d="M5.1,20.5 L19,20.5 C19.3,20.5 19.6,20.8 19.6,21.1 L19.6,23 C19.6,23.3 19.3,23.6 19,23.6 L5.1,23.6 C4.8,23.6 4.5,23.3 4.5,23 L4.5,21.1 C4.5,20.8 4.8,20.5 5.1,20.5 Z M16.5,14.5 L17.5,20.5 L16.5,14.5 Z" id="Shape"></path>
            <path d="M6,20.5 L8.2,8.8 C8.2,8.5 8.5,8.5 8.8,8.5 L11,8.5" id="Path"></path>
            <path d="M11.5,0 L11.5,6 M6.9,7.2 L2.9,3.2 M0,12.5 L5,12.5" id="Shape"></path>
            <path d="M17.5,5 L17.5,8 M17.5,9 L17.5,11" id="Shape" stroke-linejoin="round"></path>
            <polygon id="Shape" points="23.2 12.5 11.8 12.5 17.5 1"></polygon>
        </g>
    </g>
</svg>
